images_files/otherVG/instagram.svg

<svg width="25" height="25" viewBox="0 0 25 25" fill="none" xmlns="http://www.w3.org/2000/svg">
<path d="M12.5 0C9.1052 0 8.67952 0.0143895 7.34627 0.0752221C6.01579 0.135956 5.10712 0.347233 4.31198 0.656259C3.48999 0.975705 2.7929 1.40312 2.09798 2.09803C1.40307 2.79294 0.975655 3.49004 0.656209 4.31203C0.347183 5.10712 0.135906 6.01579 0.0751725 7.34627C0.0143398 8.67952 0 9.1052 0 12.5C0 15.8948 0.0143398 16.3205 0.0751725 17.6537C0.135906 18.9842 0.347183 19.8929 0.656209 20.688C0.975655 21.51 1.40307 22.2071 2.09798 22.902C2.7929 23.5969 3.48999 24.0243 4.31198 24.3438C5.10712 24.6528 6.01579 24.8641 7.34627 24.9248C8.67952 24.9856 9.1052 25 12.5 25C15.8948 25 16.3205 24.9856 17.6537 24.9248C18.9842 24.8641 19.8929 24.6528 20.688 24.3438C21.51 24.0243 22.2071 23.5969 22.902 22.902C23.5969 22.2071 24.0243 21.51 24.3438 20.688C24.6528 19.8929 24.8641 18.9842 24.9248 17.6537C24.9856 16.3205 25 15.8948 25 12.5C25 9.1052 24.9856 8.67952 24.9248 7.34627C24.8641 6.01579 24.6528 5.10712 24.3438 4.31203C24.0243 3.49004 23.5969 2.79294 22.902 2.09803C22.2071 1.40312 21.51 0.975705 20.688 0.656259C19.8929 0.347233 18.9842 0.135956 17.6537 0.0752221C16.3205 0.0143895 15.8948 0 12.5 0ZM12.5 2.2523C15.8376 2.2523 16.233 2.265 17.5511 2.32514C18.7698 2.38076 19.4317 2.5844 19.8721 2.75553C20.4556 2.98229 20.872 3.25321 21.3094 3.6906C21.7468 4.12799 22.0177 4.54444 22.2445 5.12786C22.4157 5.56832 22.6193 6.23019 22.6749 7.44893C22.735 8.767 22.7478 9.16236 22.7478 12.5C22.7478 15.8376 22.735 16.233 22.6749 17.5511C22.6193 18.7698 22.4157 19.4317 22.2445 19.8721C22.0177 20.4556 21.7468 20.872 21.3094 21.3094C20.872 21.7468 20.4556 22.0177 19.8721 22.2445C19.4317 22.4157 18.7698 22.6193 17.5511 22.6749C16.2332 22.735 15.8379 22.7478 12.5 22.7478C9.16212 22.7478 8.76685 22.735 7.44893 22.6749C6.23019 22.6193 5.56832 22.4157 5.12786 22.2445C4.54439 22.0177 4.12799 21.7468 3.69055 21.3094C3.25316 20.872 2.98224 20.4556 2.75553 19.8721C2.58435 19.4317 2.38071 18.7698 2.32509 17.5511C2.26495 16.233 2.25225 15.8376 2.25225 12.5C2.25225 9.16236 2.26495 8.767 2.32509 7.44893C2.38071 6.23019 2.58435 5.56832 2.75553 5.12786C2.98224 4.54444 3.25316 4.12799 3.69055 3.6906C4.12799 3.25321 4.54439 2.98229 5.12786 2.75553C5.56832 2.5844 6.23019 2.38076 7.44893 2.32514C8.767 2.265 9.16236 2.2523 12.5 2.2523Z" fill="#2E3E40"/>
<path d="M12.5002 16.6666C10.199 16.6666 8.33355 14.8012 8.33355 12.5C8.33355 10.1988 10.199 8.3333 12.5002 8.3333C14.8014 8.3333 16.6669 10.1988 16.6669 12.5C16.6669 14.8012 14.8014 16.6666 12.5002 16.6666ZM12.5002 6.08105C8.95512 6.08105 6.0813 8.95488 6.0813 12.5C6.0813 16.0451 8.95512 18.9189 12.5002 18.9189C16.0453 18.9189 18.9191 16.0451 18.9191 12.5C18.9191 8.95488 16.0453 6.08105 12.5002 6.08105Z" fill="#2E3E40"/>
<path d="M20.6729 5.82713C20.6729 6.65556 20.0013 7.3271 19.1728 7.3271C18.3444 7.3271 17.6729 6.65556 17.6729 5.82713C17.6729 4.99869 18.3444 4.32715 19.1728 4.32715C20.0013 4.32715 20.6729 4.99869 20.6729 5.82713Z" fill="#2E3E40"/>
</svg>

<svg xmlns="http://www.w3.org/2000/svg" width="25" height="25" fill="#2e3e40" xmlns:v="https://vecta.io/nano"><path d="M12.5 0L7.346.075c-1.33.061-2.239.272-3.034.581-.822.319-1.519.747-2.214 1.442S.976 3.49.656 4.312c-.309.795-.52 1.704-.581 3.034L0 12.5l.075 5.154c.061 1.331.272 2.239.581 3.034.319.822.747 1.519 1.442 2.214s1.392 1.122 2.214 1.442c.795.309 1.704.52 3.034.581L12.5 25l5.154-.075c1.331-.061 2.239-.272 3.034-.581.822-.32 1.519-.747 2.214-1.442s1.122-1.392 1.442-2.214c.309-.795.52-1.704.581-3.034L25 12.5l-.075-5.154c-.061-1.33-.272-2.239-.581-3.034-.32-.822-.747-1.519-1.442-2.214S21.51.976 20.688.656c-.795-.309-1.704-.52-3.034-.581L12.5 0zm0 2.252l5.051.073c1.219.056 1.881.259 2.321.43a3.87 3.87 0 0 1 1.437.935c.437.437.708.854.935 1.437.171.44.375 1.102.43 2.321l.073 5.051-.073 5.051c-.056 1.219-.259 1.881-.43 2.321a3.87 3.87 0 0 1-.935 1.437 3.87 3.87 0 0 1-1.437.935c-.44.171-1.102.375-2.321.43l-5.051.073c-3.338 0-3.733-.013-5.051-.073-1.219-.056-1.881-.259-2.321-.43-.583-.227-1-.498-1.437-.935a3.87 3.87 0 0 1-.935-1.437c-.171-.44-.375-1.102-.43-2.321L2.252 12.5l.073-5.051c.056-1.219.259-1.881.43-2.321a3.87 3.87 0 0 1 .935-1.437 3.87 3.87 0 0 1 1.437-.935c.44-.171 1.102-.375 2.321-.43l5.051-.073z"/><path d="M12.5 16.667A4.17 4.17 0 0 1 8.334 12.5 4.17 4.17 0 0 1 12.5 8.333a4.17 4.17 0 0 1 4.167 4.167 4.17 4.17 0 0 1-4.167 4.167zm0-10.586A6.42 6.42 0 0 0 6.081 12.5a6.42 6.42 0 0 0 6.419 6.419 6.42 6.42 0 0 0 6.419-6.419A6.42 6.42 0 0 0 12.5 6.081zm8.173-.254a1.5 1.5 0 1 1-3 0 1.5 1.5 0 1 1 3 0z"/></svg>
